X: 26052
T: McCaig's Tower
R: reel
M: 4/4
K: Dmajor
g>f|:e2 ce dBGB|e2 ce egfd|e2 ce dBGB|1 egfd egfd:|2 egfd egfg||
|:^g<a ea =gede|^g<a ea f<=g fg|1 ^g<a ea =gede|
gede cdeg:|2 afge fdef|gefg afgf||

